X:1
T:Io disprezzava amor
T:Giovanni Marini
T:Source : Secondo libro delle villanelle a 3 voci---Venetia---Figlio d'A.Gardano---1574. Editor : André Vierendeels (24/03/16).
T:Notes : Original clefs : C1, C2, C4 Editorial accidentals above the staff "Alla napolitana" Music by composers from Bari, collected by G.de Antiquis   
T:Io disprezzava amor
T:©
T:©
T:©
C:Giovanni Marini
Z:©
%%score [ 1 [ 2 3 ] ]
L:1/8
Q:1/4=96
M:4/4
K:F
V:1 treble nm="Soprano" snm="S"
V:2 treble-8 nm="Tenor 1" snm="T 1"
V:3 treble-8 nm="Tenor 2" snm="T 2"
V:1
 z2 G2 G3 F | EF G4 E2 | F2 A2 G4 | A4 G4 | F2 E2 D4 |[M:2/4] C4 ::[M:3/4] G2 G4 | %7
w: 1)Io dis- prez-|za- v'a- mor tua|fiam- m'ar- den-|te, tua|fiam- m'ar- den-|te,|ma lo|
w: 2)Non pen- sa-|va gia- mai che|si pos- sen-|te, che|si pos- sen-|te,|fus- se|
w: 3)Ac- qua nol|puo stu- dat ch'ar-|de so- ven-|te, ch'ar-|de so- ven-|te,|in ma-|
w: 4)Tu so- la|puoi sa- nar que-|sto'as- pro'ar- do-|re, que-|sto'as- pro'ar- do-|re,|don- na|
[M:4/4] A4 G2 G2 | D4 E4 | D2 E2 C4 | F4 E2 E2 | D4 E4 | C4 F2 F2 | D2 D2 G4 | E8 | z2 A2 F2 F2 | %16
w: tuo stral, ma|lo tuo|stral, mio cor|1)ha s'in- fiam-|ma- to,|ch'in- vi- di'a|chi nel fo-|co,|1)ch'in- vi- di'a|
w: tu'ar- dor, fus-|se tu'ar-|dor hor m'ha|2)si con- su-|ma- to,|ch'in- vi- di'a|chi nel fo-|co,|2)ch'in- vi- di'a|
w: re hor, in|ma- re'hor|pen- s'al mio'in-|3)fe- li- ce|sta- to,|ch'in- vi- di'a|chi nel fo-|co,|3)ch'in- vi- di'a|
w: gen- til, don-|na gen-|til che t'ha|4)con- ces- so'A-|mo- re,|la me- di-|ci- na que-|sto,|4)la me- di-|
 B2 B2 G4 | c2 A2 F3 G | A2 G2 G2 E2 | D4 C4 :| %20
w: chi nel fo-|co, nel fo- *|* co'e con- dan-|na- to.|
w: chi nel fo-|co, ne fo- *|* co'e con dan-|na- to.|
w: chi nel fo-|co, ne fo- *|* co'e con- dan-|na- to.|
w: ci- na que-|sto, que- sto _|_ af- flit- to|co- re.|
V:2
 z2 e2 e3 d | cd e4 ^c2 | d2 f4 e2 | f2 cd edcB |"^-natural" AB c4 B2 |[M:2/4] c4 :: %6
w: 1)Io dis- prez|za- v'a- mor tua|fiam- m'ar- den-|te, ar- * * * * *|* * * den-|te,|
w: 2)Non pen- sa-|va gia- mai che|si pos- sen-|te, so- * * * * *|* * * ven-|te,|
[M:3/4] e2 d2 e2 |[M:4/4] f2 ed e2 d2 | A2 =B2 c3 A |"^b" B2 c2 A4- | A2 d2 G2 c2- | %11
w: ma- lo tuo|stral, _ _ _ ma-|lo tuo sral, _|_ mio cor|1) ha s'in- fiam-|
w: fus- se tu'ar-|dor, _ _ _ fus-|se tu'ar- dor _|_ m'ha si|2)con- su- ma- *|
"^-natural" c2 B2 c2 c2 | A2 A2 d2 d2 | =B4 c2 G2 | c6 c2 | f2 f2 d4 | g2 g2 e2 e2 | a2 f2 a3 g | %18
w: * ma- to, ch'in-|vi- di'a chi nel|fo- co, ch'in-|vi- di'a|1)chi nel fo-|co, ch'in- vi- di'a|chi nel fo- *|
w: * * to, ch'in|vi- di'a chi lel|fo- co, ch'in-|vi- di'a|2)chi nel fo-|co, ch'in- vi- di'a|chi nel fo- *|
 f2 e2 d2 c2- | c2 =B2 c4 :| %20
w: * co'e con- dan|_ na- to.|
w: * co'e con- dan-|* na- to.|
V:3
 z2 c2 c3 B | AB c4 A2 | B2 d2 c4 | F4 C4 | D2 C2 G4 |[M:2/4] C4 ::[M:3/4] c2 =B2 c2 | %7
w: 3)Ac- qua nol|puo stu- dat ch'ar-|de so- ven-|te, ch'ar-|de so- ven-|te,|in ma- re|
w: 4)Tu so- la|puoi sa- nar que-|sto'as- pro'ar- do-|re, que-|sto'as- pro'ar- do-|re,|don- na gen-|
[M:4/4]"^-natural" FG AB c2 G2 | F2 G2 CDEF | G2 A2 F4 | D4 E2 C2 | G4 C4 | z2 F2 D2 D2 | %13
w: hor, _ _ _ _ in|ma- re hor, _ _ _|_ pen- s'al|3)mio in- fe-|li- ce|ch'in- vi- di'a|
w: til, _ _ _ _ don-|na gen- til _ _ _|_ che tha|4)con ces- so'A-|mo- re,|la me- di-|
 G2 G2 E4 | A4 z2 A2 | F2 F2 B2 B2 | G4 c4 | F4 F4- | F2 C2 G2 A2 | G4 C4 :| %20
w: chi nel fo-|co, ch'in-|3)vi- di'a chi nel|fo- co|e con|_ dan- na- *|* to.|
w: ci- na que-|sto, la|4)me- di- ci- na|que- sto,|que- sto|_ af- flit- to|co- re.|

